!!!OTL: The boys of Mullaghbawn, S. 52
!!!id: I0510
**kern
*clefG2
*k[]
*e:
{8e
8e
=1
4.g
8a
4.b
8g
=2
4e
2e
8e
8e
=3
4.g
8a
4.b
8b
=4
4a
2g}
=5
{4b
=6
4.dd
8b
4dd
4dd
=7
4ee
2ee
4b
=8
8a
4.a
4g
4e
=9
2.d}
=10
{4dd
=11
4.dd
8b
4.dd
8dd
=12
4ee
2ee
8b
8b
=13
4.a
8g
4.a
8b
=14
8a
8g
2e}
=15
{8e
8e
=16
4g
8a
8b
4dd
4ee
=17
4.b
8a
4g
4e
=18
4.d
8d
8e
4.e
=19
2.e}
==
*-
!!!minrhy: 8
!!!meters: 4/4 ]  ZZ[4
!!!cut: The boys of Mullaghbawn, S. 52
!!!reg: Irland
!!!trd: O BOYLE, Sean: 25 Irish Folksongs, Dublin 1976
!!!rhy1: XX  X_.XX_.X  X_X__XX  X_.XX_.X  X_X__
!!!rhy2: X_  X_.XX_X_  X_X__X_  XX_.X_X_  X__.
!!!key: I0510  08  E 4/4 ]  ZZ[4
!!!mod: PENTATONIK HALBTONL. ZHI]  AMBITUS[9
!!!kad: 3b-7b11
!!!akz: 3b5113b543b_7b7b+1+143b-7b-7b_7b7b+1+14441_3b7b53b-7b111_
!!!fot: 'a__b__c__d__
!!!for: 'a__b__c__d__
!!!fok: 'Ma_^d_\__^__
!! PHRAS[AUFTAKTIG]
!!!fkt: Klagelied
!! IRISCHE VKL.
!! PR[17] 2K[2] 2G[25] 3K[4] 3G[4] 4A[6] 4Ü[0] 5A[0] 6K[0] 6G[0]
!! 7K[0] 7G[0] 8A[0] MEHR[0] SI[42] ABS[48] SR[27] SP[15]
!! ST[16] 2k[2] 2g[29] 3k[4] 3g[0] 4d[4] 4ü[0] 5d[0] 6k[0] 6g[2]
!! 7k[0] 7g[0] 8d[0] mehr[0] si[42] dm[0] sr[31] sp[10]
!! 1F[10] 2F[36] 3F[30] 4F[10] LF[0] 2P[2] 3P[8] 4P[4] TRI[4] DF[7] AB[50]
!! TF[0] U3K[0] U3[0] U4[0] U4Ü[0] U5[14] U6K[0] U6[4] U7K[0] U7[0]
!! N1[29] N2K[0] N2[22] N3K[0] N3[20] N4[4] N4Ü[0] N5[4] N6K[0] N6[2]
!!!n7k: 0] N7[0] O1[0] O2K[0] O2[0] O3K[0] O3[0] HÖ[0
